;FLAVOR:Marlin
;TIME:1126
;Filament used: 1.14974m
;Layer height: 0.2
;MINX:110.547
;MINY:62.257
;MINZ:0.25
;MAXX:123.59
;MAXY:172.743
;MAXZ:9.05
;Generated with Cura_SteamEngine 5.3.1
M140 S60
M105
M190 S60
M104 S210
M105
M109 S210
M82 ;absolute extrusion mode
;ELEGOO NEPTUNE 3 Pro
M220 S100 ;Set the feed speed to 100%
M221 S100 ;Set the flow rate to 100%
G90
G28 ;home
;M420 S1 Z10;Uncomment to enable progressive compensation height of 10mm
G92 E0 ;Reset Extruder
G1 Z0.45 F300
G1 X1.5 Y20 F5000.0 ;Move to start position
G1 Y120.0 F600.0 E15 ;Draw the first line
G1 X0.5 F1000.0 ;Move to side a little
G1 Y20 F600 E30 ;Draw the second line
G92 E0 ;Reset Extruder
G92 E0
G92 E0
G1 F2700 E-1
;LAYER_COUNT:45
;LAYER:0
M107
M204 S500
;MESH:buttons.stl
G0 F6000 X112.565 Y71.282 Z0.25
;TYPE:WALL-INNER
G1 F2700 E0
G1 F3000 X120.544 Y71.282 E0.45281
G1 X120.544 Y63.412 E0.89943
G1 X112.565 Y63.412 E1.35224
G1 X112.565 Y71.282 E1.79886
G0 F6000 X112.019 Y71.828
G1 F3000 X121.09 Y71.828 E2.31365
G1 X121.09 Y62.866 E2.82224
G1 X112.019 Y62.866 E3.33702
G1 X112.019 Y71.828 E3.84561
G0 F6000 X111.473 Y72.374
;TYPE:WALL-OUTER
G1 F3000 X121.636 Y72.374 E4.42237
G1 X121.636 Y62.32 E4.99293
G1 X111.473 Y62.32 E5.56968
G1 X111.473 Y72.374 E6.14025
G0 F6000 X111.673 Y72.374
G0 X112.08 Y71.767
G0 X112.717 Y70.757
G0 X113.09 Y70.757
;TYPE:SKIN
G1 F3000 X113.09 Y63.937 E6.52728
G1 X120.019 Y63.937 E6.92051
G1 X120.019 Y70.757 E7.30754
G1 X113.09 Y70.757 E7.70076
G0 F6000 X113.724 Y70.483
G1 F3000 X113.362 Y70.121 E7.72982
G0 F6000 X113.362 Y69.349
G1 F3000 X114.496 Y70.483 E7.82083
G0 F6000 X115.269 Y70.483
G1 F3000 X113.362 Y68.577 E7.97384
G0 F6000 X113.362 Y67.805
G1 F3000 X116.041 Y70.483 E8.1888
G0 F6000 X116.813 Y70.483
G1 F3000 X113.362 Y67.033 E8.46573
G0 F6000 X113.362 Y66.26
G1 F3000 X117.585 Y70.483 E8.80465
G0 F6000 X118.357 Y70.483
G1 F3000 X113.362 Y65.488 E9.20554
G0 F6000 X113.362 Y64.716
G1 F3000 X119.129 Y70.483 E9.66838
G0 F6000 X119.744 Y70.326
G1 F3000 X113.628 Y64.21 E10.15923
G0 F6000 X114.4 Y64.21
G1 F3000 X119.744 Y69.554 E10.58812
G0 F6000 X119.744 Y68.782
G1 F3000 X115.172 Y64.21 E10.95505
G0 F6000 X115.945 Y64.21
G1 F3000 X119.744 Y68.01 E11.25999
G0 F6000 X119.744 Y67.238
G1 F3000 X116.717 Y64.21 E11.50297
G0 F6000 X117.489 Y64.21
G1 F3000 X119.744 Y66.465 E11.68395
G0 F6000 X119.744 Y65.693
G1 F3000 X118.261 Y64.21 E11.80297
G0 F6000 X119.033 Y64.21
G1 F3000 X119.744 Y64.921 E11.86003
G0 F6000 X120.553 Y64.921
G1 F2700 E10.86003
G0 F6000 X120.32 Y71.058
G0 X112.565 Y72.217
G0 X112.565 Y73.312
G0 X112.565 Y78.268
G0 X112.565 Y79.363
G0 X112.565 Y88.168
;TYPE:WALL-INNER
G1 F2700 E11.86003
G1 F3000 X120.544 Y88.168 E12.31284
G1 X120.544 Y80.298 E12.75946
G1 X112.565 Y80.298 E13.21227
G1 X112.565 Y88.168 E13.65889
G0 F6000 X112.019 Y88.714
G1 F3000 X121.09 Y88.714 E14.17367
G1 X121.09 Y79.752 E14.68227
G1 X112.019 Y79.752 E15.19705
G1 X112.019 Y88.714 E15.70564
G0 F6000 X111.473 Y89.26
;TYPE:WALL-OUTER
G1 F3000 X121.636 Y89.26 E16.28239
G1 X121.636 Y79.206 E16.85296
G1 X111.473 Y79.206 E17.42971
G1 X111.473 Y89.26 E18.00028
G0 F6000 X111.673 Y89.26
G0 X112.08 Y88.653
G0 X112.717 Y87.643
G0 X113.09 Y87.643
;TYPE:SKIN
G1 F3000 X113.09 Y80.823 E18.38731
G1 X120.019 Y80.823 E18.78053
G1 X120.019 Y87.643 E19.16757
G1 X113.09 Y87.643 E19.56079
G0 F6000 X113.623 Y87.37
G1 F3000 X113.361 Y87.108 E19.58182
G0 F6000 X113.361 Y86.336
G1 F3000 X114.395 Y87.37 E19.6648
G0 F6000 X115.167 Y87.37
G1 F3000 X113.361 Y85.564 E19.80975
G0 F6000 X113.361 Y84.792
G1 F3000 X115.94 Y87.37 E20.01669
G0 F6000 X116.712 Y87.37
G1 F3000 X113.361 Y84.019 E20.28563
G0 F6000 X113.361 Y83.247
G1 F3000 X117.484 Y87.37 E20.61653
G0 F6000 X118.256 Y87.37
G1 F3000 X113.361 Y82.475 E21.00939
G0 F6000 X113.361 Y81.703
G1 F3000 X119.028 Y87.37 E21.4642
G0 F6000 X119.745 Y87.314
G1 F3000 X113.526 Y81.095 E21.96332
G0 F6000 X114.298 Y81.095
G1 F3000 X119.745 Y86.542 E22.40048
G0 F6000 X119.745 Y85.77
G1 F3000 X115.071 Y81.095 E22.77564
G0 F6000 X115.843 Y81.095
G1 F3000 X119.745 Y84.998 E23.08884
G0 F6000 X119.745 Y84.226
G1 F3000 X116.615 Y81.095 E23.34008
G0 F6000 X117.387 Y81.095
G1 F3000 X119.745 Y83.454 E23.52937
G0 F6000 X119.745 Y82.681
G1 F3000 X118.159 Y81.095 E23.65666
G0 F6000 X118.931 Y81.095
G1 F3000 X119.745 Y81.909 E23.72198
G1 X119.819 Y81.983
G0 F6000 X120.553 Y81.983
G1 F2700 E22.72198
G0 F6000 X120.32 Y87.944
G0 X112.565 Y89.103
G0 X112.565 Y90.198
G0 X112.565 Y96.344
G0 X112.565 Y97.439
G0 X112.565 Y106.244
;TYPE:WALL-INNER
G1 F2700 E23.72198
G1 F3000 X122.435 Y106.244 E24.28211
G1 X122.435 Y98.374 E24.72873
G1 X112.565 Y98.374 E25.28886
G1 X112.565 Y106.244 E25.73548
G0 F6000 X112.019 Y106.79
G1 F3000 X122.981 Y106.79 E26.35757
G1 X122.981 Y97.828 E26.86617
G1 X112.019 Y97.828 E27.48826
G1 X112.019 Y106.79 E27.99686
G0 F6000 X111.473 Y107.336
;TYPE:WALL-OUTER
G1 F3000 X123.527 Y107.336 E28.68092
G1 X123.527 Y97.282 E29.25149
G1 X111.473 Y97.282 E29.93555
G1 X111.473 Y107.336 E30.50612
G0 F6000 X111.673 Y107.336
G0 X112.08 Y106.729
G0 X112.717 Y105.719
G0 X113.09 Y105.719
;TYPE:SKIN
G1 F3000 X113.09 Y98.899 E30.89315
G1 X121.91 Y98.899 E31.39369
G1 X121.91 Y105.719 E31.78073
G1 X113.09 Y105.719 E32.28126
G0 F6000 X113.939 Y105.445
G1 F3000 X113.361 Y104.868 E32.32761
G0 F6000 X113.361 Y104.096
G1 F3000 X114.711 Y105.445 E32.43592
G0 F6000 X115.483 Y105.445
G1 F3000 X113.361 Y103.323 E32.60622
G0 F6000 X113.361 Y102.551
G1 F3000 X116.256 Y105.445 E32.83853
G0 F6000 X117.028 Y105.445
G1 F3000 X113.361 Y101.779 E33.13279
G0 F6000 X113.361 Y101.007
G1 F3000 X117.8 Y105.445 E33.48901
G0 F6000 X118.572 Y105.445
G1 F3000 X113.361 Y100.235 E33.90718
G0 F6000 X113.361 Y99.463
G1 F3000 X119.344 Y105.445 E34.38732
G0 F6000 X120.116 Y105.445
G1 F3000 X113.842 Y99.171 E34.89085
G0 F6000 X114.614 Y99.171
G1 F3000 X120.889 Y105.445 E35.39442
G0 F6000 X121.636 Y105.421
G1 F3000 X115.387 Y99.171 E35.89599
G0 F6000 X116.159 Y99.171
G1 F3000 X121.636 Y104.648 E36.33555
G0 F6000 X121.636 Y103.876
G1 F3000 X116.931 Y99.171 E36.71316
G0 F6000 X117.703 Y99.171
G1 F3000 X121.636 Y103.104 E37.02881
G0 F6000 X121.636 Y102.332
G1 F3000 X118.475 Y99.171 E37.2825
G0 F6000 X119.247 Y99.171
G1 F3000 X121.636 Y101.56 E37.47424
G0 F6000 X121.636 Y100.788
G1 F3000 X120.02 Y99.171 E37.60397
G0 F6000 X120.792 Y99.171
G1 F3000 X121.636 Y100.016 E37.67175
G1 X121.71 Y100.09
G0 F6000 X122.444 Y100.09
G1 F2700 E36.67175
G0 F6000 X122.211 Y106.02
G0 X112.565 Y107.179
G0 X112.565 Y108.274
G0 X112.565 Y120.677
G0 X112.565 Y121.772
G0 X112.565 Y122.707
;TYPE:WALL-INNER
G1 F2700 E37.67175
G1 F3000 X112.565 Y130.577 E38.11837
G1 X122.435 Y130.577 E38.6785
G1 X122.435 Y122.707 E39.12512
G1 X112.565 Y122.707 E39.68524
G0 F6000 X112.019 Y122.161
G1 F3000 X112.019 Y131.123 E40.19384
G1 X122.981 Y131.123 E40.81593
G1 X122.981 Y122.161 E41.32453
G1 X112.019 Y122.161 E41.94662
G0 F6000 X111.473 Y121.615
;TYPE:WALL-OUTER
G1 F3000 X111.473 Y131.669 E42.51719
G1 X123.527 Y131.669 E43.20125
G1 X123.527 Y121.615 E43.77182
G1 X111.473 Y121.615 E44.45588
G0 F6000 X111.473 Y121.815
G0 X112.08 Y122.222
G0 X112.717 Y123.232
G0 X113.09 Y123.232
;TYPE:SKIN
G1 F3000 X121.91 Y123.232 E44.95642
G1 X121.91 Y130.052 E45.34345
G1 X113.09 Y130.052 E45.84399
G1 X113.09 Y123.232 E46.23103
G0 F6000 X112.717 Y123.232
G0 X112.789 Y130.353
G0 X113.562 Y130.425
G0 X113.562 Y129.778
G1 F3000 X113.362 Y129.578 E46.24708
G0 F6000 X113.362 Y128.805
G1 F3000 X114.334 Y129.778 E46.32513
G0 F6000 X115.107 Y129.778
G1 F3000 X113.362 Y128.033 E46.46518
G0 F6000 X113.362 Y127.261
G1 F3000 X115.879 Y129.778 E46.66718
G0 F6000 X116.651 Y129.778
G1 F3000 X113.362 Y126.489 E46.93115
G0 F6000 X113.362 Y125.717
G1 F3000 X117.423 Y129.778 E47.25707
G0 F6000 X118.195 Y129.778
G1 F3000 X113.362 Y124.945 E47.64495
G0 F6000 X113.362 Y124.172
G1 F3000 X118.967 Y129.778 E48.09483
G0 F6000 X119.74 Y129.778
G1 F3000 X113.465 Y123.503 E48.59844
G0 F6000 X114.238 Y123.503
G1 F3000 X120.512 Y129.778 E49.10201
G0 F6000 X121.284 Y129.778
G1 F3000 X115.01 Y123.503 E49.60558
G0 F6000 X115.782 Y123.503
G1 F3000 X121.637 Y129.358 E50.07549
G0 F6000 X121.637 Y128.586
G1 F3000 X116.554 Y123.503 E50.48343
G0 F6000 X117.326 Y123.503
G1 F3000 X121.637 Y127.814 E50.82942
G0 F6000 X121.637 Y127.042
G1 F3000 X118.098 Y123.503 E51.11345
G0 F6000 X118.871 Y123.503
G1 F3000 X121.637 Y126.27 E51.33548
G0 F6000 X121.637 Y125.498
G1 F3000 X119.643 Y123.503 E51.49555
G0 F6000 X120.415 Y123.503
G1 F3000 X121.637 Y124.725 E51.59362
G0 F6000 X121.637 Y123.953
G1 F3000 X121.187 Y123.503 E51.62974
G0 F6000 X121.187 Y122.698
G1 F2700 E50.62974
G0 F6000 X112.789 Y122.931
G0 X112.565 Y131.512
G0 X112.565 Y132.607
G0 X112.565 Y143.116
G0 X112.565 Y144.211
G0 X112.565 Y145.146
;TYPE:WALL-INNER
G1 F2700 E51.62974
G1 F3000 X112.565 Y153.016 E52.07636
G1 X122.435 Y153.016 E52.63649
G1 X122.435 Y145.146 E53.08311
G1 X112.565 Y145.146 E53.64323
G0 F6000 X112.019 Y144.6
G1 F3000 X112.019 Y153.562 E54.15183
G1 X122.981 Y153.562 E54.77392
G1 X122.981 Y144.6 E55.28252
G1 X112.019 Y144.6 E55.90461
G0 F6000 X111.473 Y144.054
;TYPE:WALL-OUTER
G1 F3000 X111.473 Y154.108 E56.47518
G1 X123.527 Y154.108 E57.15924
G1 X123.527 Y144.054 E57.72981
G1 X111.473 Y144.054 E58.41387
G0 F6000 X111.473 Y144.254
G0 X112.08 Y144.661
G0 X112.717 Y145.671
G0 X113.09 Y145.671
;TYPE:SKIN
G1 F3000 X121.91 Y145.671 E58.91441
G1 X121.91 Y152.491 E59.30145
G1 X113.09 Y152.491 E59.80198
G1 X113.09 Y145.671 E60.18902
G0 F6000 X112.717 Y145.671
G0 X112.789 Y152.792
G0 X113.609 Y152.864
G0 X113.609 Y152.217
G1 F3000 X113.362 Y151.97 E60.20884
G0 F6000 X113.362 Y151.198
G1 F3000 X114.381 Y152.217 E60.29062
G0 F6000 X115.153 Y152.217
G1 F3000 X113.362 Y150.426 E60.43436
G0 F6000 X113.362 Y149.654
G1 F3000 X115.925 Y152.217 E60.64006
G0 F6000 X116.698 Y152.217
G1 F3000 X113.362 Y148.882 E60.90776
G0 F6000 X113.362 Y148.109
G1 F3000 X117.47 Y152.217 E61.23745
G0 F6000 X118.242 Y152.217
G1 F3000 X113.362 Y147.337 E61.6291
G0 F6000 X113.362 Y146.565
G1 F3000 X119.014 Y152.217 E62.08272
G0 F6000 X119.786 Y152.217
G1 F3000 X113.512 Y145.943 E62.58625
G0 F6000 X114.284 Y145.943
G1 F3000 X120.558 Y152.217 E63.08978
G0 F6000 X121.331 Y152.217
G1 F3000 X115.056 Y145.943 E63.59335
G0 F6000 X115.829 Y145.943
G1 F3000 X121.637 Y151.751 E64.05948
G0 F6000 X121.637 Y150.979
G1 F3000 X116.601 Y145.943 E64.46365
G0 F6000 X117.373 Y145.943
G1 F3000 X121.637 Y150.207 E64.80587
G0 F6000 X121.637 Y149.434
G1 F3000 X118.145 Y145.943 E65.08608
G0 F6000 X118.917 Y145.943
G1 F3000 X121.637 Y148.662 E65.30434
G0 F6000 X121.637 Y147.89
G1 F3000 X119.689 Y145.943 E65.46064
G0 F6000 X120.462 Y145.943
G1 F3000 X121.637 Y147.118 E65.55494
G0 F6000 X121.637 Y146.346
G1 F3000 X121.234 Y145.943 E65.58729
G0 F6000 X121.234 Y145.137
G1 F2700 E64.58729
G0 F6000 X112.789 Y145.37
G0 X112.565 Y153.951
G0 X112.565 Y155.046
G0 X112.565 Y161.688
G0 X112.565 Y162.783
G0 X112.565 Y163.718
;TYPE:WALL-INNER
G1 F2700 E65.58729
G1 F3000 X112.565 Y171.588 E66.03391
G1 X122.435 Y171.588 E66.59403
G1 X122.435 Y163.718 E67.04066
G1 X112.565 Y163.718 E67.60078
G0 F6000 X112.019 Y163.172
G1 F3000 X112.019 Y172.134 E68.10938
G1 X122.981 Y172.134 E68.73147
G1 X122.981 Y163.172 E69.24006
G1 X112.019 Y163.172 E69.86216
G0 F6000 X111.473 Y162.626
;TYPE:WALL-OUTER
G1 F3000 X111.473 Y172.68 E70.43273
G1 X123.527 Y172.68 E71.11679
G1 X123.527 Y162.626 E71.68736
G1 X111.473 Y162.626 E72.37142
G0 F6000 X111.473 Y162.826
G0 X112.08 Y163.233
G0 X112.717 Y164.243
G0 X113.09 Y164.243
;TYPE:SKIN
G1 F3000 X121.91 Y164.243 E72.87196
G1 X121.91 Y171.063 E73.25899
G1 X113.09 Y171.063 E73.75953
G1 X113.09 Y164.243 E74.14657
G0 F6000 X112.717 Y164.243
G0 X112.789 Y171.364
G0 X113.649 Y171.436
G0 X113.649 Y170.789
G1 F3000 X113.362 Y170.502 E74.1696
G0 F6000 X113.362 Y169.73
G1 F3000 X114.421 Y170.789 E74.25459
G0 F6000 X115.194 Y170.789
G1 F3000 X113.362 Y168.958 E74.40158
G0 F6000 X113.362 Y168.186
G1 F3000 X115.966 Y170.789 E74.61053
G0 F6000 X116.738 Y170.789
M104 S200
G1 F3000 X113.362 Y167.413 E74.88148
G0 F6000 X113.362 Y166.641
G1 F3000 X117.51 Y170.789 E75.21438
G0 F6000 X118.282 Y170.789
G1 F3000 X113.362 Y165.869 E75.60925
G0 F6000 X113.362 Y165.097
G1 F3000 X119.054 Y170.789 E76.06607
G0 F6000 X119.827 Y170.789
G1 F3000 X113.552 Y164.515 E76.56964
G0 F6000 X114.325 Y164.515
G1 F3000 X120.599 Y170.789 E77.07317
G0 F6000 X121.371 Y170.789
G1 F3000 X115.097 Y164.515 E77.5767
G0 F6000 X115.869 Y164.515
G1 F3000 X121.637 Y170.283 E78.03962
G0 F6000 X121.637 Y169.511
G1 F3000 X116.641 Y164.515 E78.44058
G0 F6000 X117.413 Y164.515
G1 F3000 X121.637 Y168.739 E78.77959
G0 F6000 X121.637 Y167.966
G1 F3000 X118.185 Y164.515 E79.05659
G0 F6000 X118.957 Y164.515
G1 F3000 X121.637 Y167.194 E79.27164
G0 F6000 X121.637 Y166.422
G1 F3000 X119.73 Y164.515 E79.42469
G0 F6000 X120.502 Y164.515
G1 F3000 X121.637 Y165.65 E79.51578
G0 F6000 X121.637 Y164.878
G1 F3000 X121.274 Y164.515 E79.54492
G0 F6000 X121.274 Y163.709
G1 F2700 E78.54492
;MESH:NONMESH
G0 F600 X121.274 Y163.709 Z0.45
G0 F6000 X112.25 Y162.783
G0 X112.25 Y161.688
G0 X110.547 Y155.034
G0 X110.547 Y78.28
G0 X112.25 Y73.312
G0 X112.25 Y72.217
G0 X112.25 Y71.597
;TIME_ELAPSED:60.549179
;LAYER:1
M106 S85
M204 S667
;TYPE:WALL-INNER
;MESH:buttons.stl
G1 F2700 E79.54492
G1 F3300 X120.859 Y71.597 E79.84557
G1 X120.859 Y63.097 E80.14242
G1 X112.25 Y63.097 E80.44307
G1 X112.25 Y71.597 E80.73992
G0 F7000 X111.83 Y72.017
G1 F3300 X121.279 Y72.017 E81.06991
G1 X121.279 Y62.677 E81.39609
G1 X111.83 Y62.677 E81.72608
G1 X111.83 Y72.017 E82.05226
G0 F7000 X111.41 Y72.437
;TYPE:WALL-OUTER
G1 F3000 X121.699 Y72.437 E82.41158
G1 X121.699 Y62.257 E82.7671
G1 X111.41 Y62.257 E83.12642
G1 X111.41 Y72.437 E83.48194
G0 F7000 X111.61 Y72.437
G0 X112.08 Y71.767
G0 X112.649 Y71.198
;TYPE:SKIN
G1 F3300 X112.649 Y63.496 E83.75092
G1 X120.46 Y63.496 E84.0237
G1 X120.46 Y71.198 E84.29268
G1 X112.649 Y71.198 E84.56547
G0 F7000 X113.296 Y63.706
G1 F3300 X112.858 Y64.144 E84.5871
G0 F7000 X112.858 Y64.738
G1 F3300 X113.89 Y63.706 E84.63807
G0 F7000 X114.484 Y63.706
G1 F3300 X112.858 Y65.332 E84.71838
G0 F7000 X112.858 Y65.926
G1 F3300 X115.078 Y63.706 E84.82802
G0 F7000 X115.672 Y63.706
G1 F3300 X112.858 Y66.52 E84.967
G0 F7000 X112.858 Y67.114
G1 F3300 X116.266 Y63.706 E85.13532
G0 F7000 X116.86 Y63.706
G1 F3300 X112.858 Y67.708 E85.33297
G0 F7000 X112.858 Y68.302
G1 F3300 X117.454 Y63.706 E85.55996
G0 F7000 X118.048 Y63.706
G1 F3300 X112.858 Y68.896 E85.81629
G0 F7000 X112.858 Y69.49
G1 F3300 X118.642 Y63.706 E86.10195
G0 F7000 X119.236 Y63.706
G1 F3300 X112.858 Y70.084 E86.41695
G0 F7000 X112.858 Y70.678
G1 F3300 X119.83 Y63.706 E86.76129
G0 F7000 X120.249 Y63.881
G1 F3300 X113.142 Y70.987 E87.11227
G0 F7000 X113.736 Y70.987
G1 F3300 X120.249 Y64.475 E87.43392
G0 F7000 X120.249 Y65.069
G1 F3300 X114.33 Y70.987 E87.72623
G0 F7000 X114.924 Y70.987
G1 F3300 X120.249 Y65.663 E87.9892
G0 F7000 X120.249 Y66.257
G1 F3300 X115.518 Y70.987 E88.22283
G0 F7000 X116.112 Y70.987
G1 F3300 X120.249 Y66.851 E88.42713
G0 F7000 X120.249 Y67.445
G1 F3300 X116.706 Y70.987 E88.60209
G0 F7000 X117.3 Y70.987
G1 F3300 X120.249 Y68.039 E88.74771
G0 F7000 X120.249 Y68.633
G1 F3300 X117.894 Y70.987 E88.864
G0 F7000 X118.488 Y70.987
G1 F3300 X120.249 Y69.227 E88.95094
G0 F7000 X120.249 Y69.821
G1 F3300 X119.082 Y70.987 E89.00856
G0 F7000 X119.676 Y70.987
G1 F3300 X120.249 Y70.415 E89.03683
G1 F2700 E88.03683
G0 F7000 X112.25 Y72.217
G0 X112.25 Y73.312
G0 X112.25 Y78.268
G0 X112.25 Y79.363
G0 X112.25 Y88.483
