;FLAVOR:Marlin
;TIME:4437
;Filament used: 7.19893m
;Layer height: 0.2
;MINX:104.541
;MINY:32.21
;MINZ:0.25
;MAXX:130.459
;MAXY:202.79
;MAXZ:20.25
;Generated with Cura_SteamEngine 5.3.1
M140 S60
M105
M190 S60
M104 S210
M105
M109 S210
M82 ;absolute extrusion mode
;ELEGOO NEPTUNE 3 Pro
M220 S100 ;Set the feed speed to 100%
M221 S100 ;Set the flow rate to 100%
G90
G28 ;home
;M420 S1 Z10;Uncomment to enable progressive compensation height of 10mm
G92 E0 ;Reset Extruder
G1 Z0.45 F300
G1 X1.5 Y20 F5000.0 ;Move to start position
G1 Y120.0 F600.0 E15 ;Draw the first line
G1 X0.5 F1000.0 ;Move to side a little
G1 Y20 F600 E30 ;Draw the second line
G92 E0 ;Reset Extruder
G92 E0
G92 E0
G1 F2700 E-1
;LAYER_COUNT:101
;LAYER:0
M107
M204 S500
;MESH:sideboard_drill_guide.stl
G0 F6000 X113.553 Y77.36 Z0.25
;TYPE:WALL-INNER
G1 F2700 E0
G1 F3000 X113.439 Y77.001 E0.02138
G1 X113.321 Y76.372 E0.05769
G1 X113.342 Y75.993 E0.07924
G1 X113.515 Y75.246 E0.12275
G1 X113.909 Y74.61 E0.16521
G1 X114.151 Y74.318 E0.18673
G1 X114.865 Y73.864 E0.23475
G1 X115.085 Y73.776 E0.24819
G1 X115.802 Y73.642 E0.28959
G1 X116.083 Y73.64 E0.30554
G1 X116.792 Y73.785 E0.3466
G1 X117.039 Y73.884 E0.36171
G1 X117.755 Y74.348 E0.41012
G1 X118.181 Y74.902 E0.44978
G1 X118.476 Y75.65 E0.49542
G1 X118.524 Y75.892 E0.50942
G1 X118.515 Y76.637 E0.5517
G1 X118.449 Y76.946 E0.56963
G1 X118.187 Y77.566 E0.60783
G1 X118.029 Y77.805 E0.62409
G1 X117.656 Y78.214 E0.6555
G1 X117.073 Y78.599 E0.69515
G1 X116.773 Y78.721 E0.71353
G1 X116.098 Y78.855 E0.75258
G1 X115.791 Y78.857 E0.77
G1 X115.072 Y78.717 E0.81157
G1 X114.821 Y78.616 E0.82693
G1 X114.287 Y78.269 E0.86307
G1 X114.019 Y78.033 E0.88333
G1 X113.553 Y77.36 E0.92979
G0 F6000 X114.005 Y77.052
G1 F3000 X113.865 Y76.325 E0.9718
G1 X113.878 Y76.097 E0.98476
G1 X114.019 Y75.456 E1.02201
G1 X114.449 Y74.777 E1.06762
G1 X115.162 Y74.316 E1.11581
G1 X115.931 Y74.17 E1.16023
G1 X116.639 Y74.309 E1.20117
G1 X116.863 Y74.413 E1.21519
G1 X117.364 Y74.756 E1.24964
G1 X117.695 Y75.161 E1.27933
G1 X117.977 Y75.865 E1.32237
G1 X117.975 Y76.547 E1.36107
G1 X117.94 Y76.738 E1.37209
G1 X117.702 Y77.315 E1.40751
G1 X117.344 Y77.759 E1.43988
G1 X116.735 Y78.176 E1.48176
G1 X116.033 Y78.313 E1.52235
G1 X115.848 Y78.314 E1.53285
G1 X115.139 Y78.175 E1.57385
G1 X114.474 Y77.738 E1.61901
G1 X114.005 Y77.052 E1.66617
G1 F2700 E0.66617
G0 F6000 X113.93 Y77.101
G0 X114.715 Y78.823
G0 X105.948 Y78.823
G0 X105.696 Y116.135
G1 F2700 E1.66617
G1 F3000 X107.556 Y116.135 E1.77173
G1 X107.845 Y116.165 E1.78822
G1 X108.231 Y116.313 E1.81168
G1 X108.453 Y116.47 E1.82711
G1 X108.78 Y116.894 E1.85749
G1 X108.918 Y117.403 E1.88742
G1 X108.917 Y158.87 E4.24068
G1 X108.848 Y159.195 E4.25953
G1 X108.723 Y159.459 E4.27611
G1 X108.581 Y159.652 E4.28971
G1 X108.347 Y159.864 E4.30763
G1 X108.064 Y160.018 E4.32591
G1 X107.556 Y160.115 E4.35526
G1 X105.696 Y160.115 E4.46082
G1 X105.696 Y198.635 E6.64683
G1 X107.556 Y198.635 E6.75239
G1 X107.879 Y198.673 E6.77084
G1 X108.116 Y198.754 E6.78506
G1 X108.413 Y198.937 E6.80485
G1 X108.593 Y199.111 E6.81906
G1 X108.788 Y199.411 E6.83937
G1 X108.878 Y199.656 E6.85418
G1 X108.921 Y200 E6.87385
G1 X108.921 Y201.635 E6.96664
G1 X126.191 Y201.635 E7.94671
G1 X126.191 Y200 E8.0395
G1 X126.233 Y199.661 E8.05889
G1 X126.321 Y199.418 E8.07355
G1 X126.512 Y199.119 E8.09369
G1 X126.691 Y198.943 E8.10793
G1 X126.989 Y198.757 E8.12787
G1 X127.228 Y198.674 E8.14223
G1 X127.556 Y198.635 E8.16097
G1 X129.304 Y198.635 E8.26017
G1 X129.304 Y160.115 E10.44618
G1 X127.556 Y160.115 E10.54538
G1 X127.247 Y160.081 E10.56303
G1 X126.848 Y159.918 E10.58749
G1 X126.656 Y159.778 E10.60097
G1 X126.434 Y159.529 E10.6199
G1 X126.233 Y159.091 E10.64725
G1 X126.192 Y158.815 E10.66309
G1 X126.194 Y117.403 E13.01322
G1 X126.268 Y117.045 E13.03397
G1 X126.367 Y116.828 E13.0475
G1 X126.573 Y116.552 E13.06705
G1 X126.743 Y116.403 E13.07988
G1 X127.036 Y116.237 E13.09899
G1 X127.26 Y116.166 E13.11232
G1 X127.556 Y116.135 E13.12921
G1 X129.304 Y116.135 E13.22841
G1 X129.304 Y77.615 E15.41443
G1 X127.556 Y77.615 E15.51363
G1 X127.247 Y77.581 E15.53127
G1 X126.848 Y77.418 E15.55573
G1 X126.656 Y77.278 E15.56921
G1 X126.434 Y77.029 E15.58814
G1 X126.233 Y76.591 E15.61549
G1 X126.192 Y76.315 E15.63133
G1 X126.191 Y33.365 E18.06874
G1 X108.921 Y33.365 E19.04882
G1 X108.917 Y76.37 E21.48936
G1 X108.848 Y76.695 E21.50821
G1 X108.723 Y76.959 E21.52479
G1 X108.581 Y77.152 E21.53839
G1 X108.347 Y77.364 E21.5563
G1 X108.064 Y77.518 E21.57459
G1 X107.556 Y77.615 E21.60394
G1 X105.696 Y77.615 E21.70949
G1 X105.696 Y116.135 E23.89551
G0 F6000 X105.15 Y116.681
G1 F3000 X107.556 Y116.681 E24.03205
G1 X107.862 Y116.739 E24.04972
G1 X108.037 Y116.836 E24.06108
G1 X108.248 Y117.06 E24.07854
G1 X108.374 Y117.442 E24.10137
G1 X108.372 Y158.833 E26.45031
G1 X108.331 Y159.017 E26.46101
G1 X108.171 Y159.292 E26.47907
G1 X107.861 Y159.511 E26.50061
G1 X107.556 Y159.569 E26.51823
G1 X105.15 Y159.569 E26.65477
G1 X105.15 Y199.181 E28.90275
G1 X107.556 Y199.181 E29.03929
G1 X107.892 Y199.252 E29.05878
G1 X108.179 Y199.467 E29.07913
G1 X108.375 Y199.843 E29.1032
G1 X108.375 Y202.181 E29.23588
G1 X126.737 Y202.181 E30.27792
G1 X126.737 Y199.844 E30.41055
G1 X126.93 Y199.471 E30.43438
G1 X127.216 Y199.254 E30.45475
G1 X127.556 Y199.181 E30.47449
G1 X129.85 Y199.181 E30.60467
G1 X129.85 Y159.569 E32.85266
G1 X127.42 Y159.569 E32.99056
G1 X127.131 Y159.451 E33.00828
G1 X126.921 Y159.269 E33.02405
G1 X126.814 Y159.099 E33.03545
G1 X126.737 Y158.789 E33.05357
G1 X126.738 Y117.442 E35.40002
G1 X126.801 Y117.18 E35.41531
G1 X127.01 Y116.888 E35.43569
G1 X127.144 Y116.792 E35.44505
G1 X127.426 Y116.681 E35.46224
G1 X129.85 Y116.681 E35.59981
G1 X129.85 Y77.069 E37.84779
G1 X127.42 Y77.069 E37.98569
G1 X127.131 Y76.951 E38.00341
G1 X126.921 Y76.769 E38.01918
G1 X126.814 Y76.599 E38.03058
G1 X126.737 Y76.289 E38.04871
G1 X126.737 Y32.819 E40.51563
G1 X108.375 Y32.819 E41.55768
G1 X108.372 Y76.333 E44.0271
G1 X108.331 Y76.517 E44.0378
G1 X108.171 Y76.792 E44.05586
G1 X107.861 Y77.011 E44.0774
G1 X107.556 Y77.069 E44.09502
G1 X105.15 Y77.069 E44.23156
G1 X105.15 Y116.681 E46.47954
G1 F2700 E45.47954
G0 F6000 X105.241 Y116.681
G0 X108.394 Y116.662
G0 X109.172 Y157.746
G0 X113.114 Y158.444
G0 X113.515 Y157.746
G1 F2700 E46.47954
G1 F3000 X113.909 Y157.11 E46.522
G1 X114.151 Y156.818 E46.54352
G1 X114.865 Y156.364 E46.59154
G1 X115.085 Y156.276 E46.60499
G1 X115.802 Y156.142 E46.64638
G1 X116.083 Y156.14 E46.66233
G1 X116.792 Y156.285 E46.7034
G1 X117.039 Y156.384 E46.7185
G1 X117.755 Y156.848 E46.76692
G1 X118.181 Y157.402 E46.80658
G1 X118.476 Y158.15 E46.85221
G1 X118.524 Y158.392 E46.86621
G1 X118.515 Y159.137 E46.90849
G1 X118.449 Y159.446 E46.92642
G1 X118.187 Y160.066 E46.96462
G1 X118.029 Y160.305 E46.98088
G1 X117.656 Y160.714 E47.01229
G1 X117.073 Y161.099 E47.05194
G1 X116.773 Y161.221 E47.07032
G1 X116.098 Y161.355 E47.10937
G1 X115.791 Y161.357 E47.1268
G1 X115.072 Y161.217 E47.16837
G1 X114.821 Y161.116 E47.18372
G1 X114.287 Y160.769 E47.21986
G1 X114.019 Y160.533 E47.24013
G1 X113.553 Y159.86 E47.28658
G1 X113.439 Y159.501 E47.30796
G1 X113.321 Y158.872 E47.34428
G1 X113.342 Y158.493 E47.36582
G1 X113.515 Y157.746 E47.40933
G0 F6000 X114.378 Y157.23
G0 X114.449 Y157.277
G1 F3000 X115.162 Y156.816 E47.45751
G1 X115.931 Y156.67 E47.50194
G1 X116.639 Y156.809 E47.54288
G1 X116.863 Y156.913 E47.5569
G1 X117.364 Y157.256 E47.59135
G1 X117.695 Y157.661 E47.62104
G1 X117.977 Y158.365 E47.66407
G1 X117.975 Y159.047 E47.70278
G1 X117.94 Y159.238 E47.7138
G1 X117.702 Y159.815 E47.74922
G1 X117.344 Y160.259 E47.78159
G1 X116.735 Y160.676 E47.82347
G1 X116.033 Y160.813 E47.86406
G1 X115.848 Y160.814 E47.87456
G1 X115.139 Y160.675 E47.91556
G1 X114.474 Y160.238 E47.96072
G1 X114.005 Y159.552 E48.00788
G1 X113.865 Y158.825 E48.0499
G1 X113.878 Y158.597 E48.06286
G1 X114.019 Y157.956 E48.1001
G1 X114.449 Y157.277 E48.14571
G0 F6000 X114.523 Y158.166
;TYPE:WALL-OUTER
G1 F3000 X114.839 Y157.683 E48.17847
G1 X115.341 Y157.342 E48.21291
G1 X115.932 Y157.224 E48.24711
G1 X116.513 Y157.338 E48.28071
G1 X117 Y157.663 E48.31394
G1 X117.223 Y157.949 E48.33452
G1 X117.428 Y158.469 E48.36624
G1 X117.429 Y159.055 E48.39949
G1 X117.207 Y159.582 E48.43195
G1 X116.99 Y159.843 E48.45121
G1 X116.511 Y160.163 E48.4839
G1 X115.937 Y160.277 E48.51711
G1 X115.346 Y160.162 E48.55128
G1 X114.843 Y159.822 E48.58573
G1 X114.519 Y159.328 E48.61926
G1 X114.404 Y158.752 E48.65259
G1 X114.523 Y158.166 E48.68653
G0 F6000 X114.632 Y157.999
G1 F2700 E47.68653
G0 F6000 X114.101 Y157.644
G0 X114.765 Y156.154
G0 X109.172 Y156.154
G0 X108.394 Y116.662
G0 X105.211 Y116.62
G0 X104.604 Y117.227
G1 F2700 E48.68653
G1 F3000 X107.556 Y117.227 E48.85405
G1 X107.717 Y117.278 E48.86364
G1 X107.829 Y117.48 E48.87675
G1 X107.828 Y158.778 E51.22041
G1 X107.761 Y158.931 E51.22989
G1 X107.631 Y159.023 E51.23893
G1 X104.604 Y159.023 E51.41071
G1 X104.604 Y199.727 E53.72067
G1 X107.637 Y199.727 E53.89279
G1 X107.764 Y199.822 E53.90179
G1 X107.829 Y199.946 E53.90974
G1 X107.829 Y202.727 E54.06756
G1 X127.283 Y202.727 E55.17158
G1 X127.283 Y199.948 E55.32928
G1 X127.347 Y199.823 E55.33725
G1 X127.474 Y199.727 E55.34629
G1 X130.396 Y199.727 E55.51211
G1 X130.396 Y159.023 E57.82207
G1 X127.506 Y159.023 E57.98608
G1 X127.382 Y158.962 E57.99392
G1 X127.284 Y158.781 E58.0056
G1 X127.285 Y117.461 E60.35051
G1 X127.347 Y117.323 E60.3591
G1 X127.48 Y117.227 E60.36841
G1 X130.396 Y117.227 E60.53389
G1 X130.396 Y76.523 E62.84385
G1 X127.506 Y76.523 E63.00786
G1 X127.382 Y76.462 E63.0157
G1 X127.284 Y76.281 E63.02738
G1 X127.283 Y32.273 E65.52484
G1 X107.829 Y32.273 E66.62885
G1 X107.828 Y76.278 E69.12614
G1 X107.761 Y76.431 E69.13562
G1 X107.631 Y76.523 E69.14466
G1 X104.604 Y76.523 E69.31644
G1 X104.604 Y117.227 E71.6264
G0 F6000 X104.804 Y117.227
G1 F2700 E70.6264
G0 F6000 X105.211 Y116.62
G0 X105.948 Y77.867
G0 X113.099 Y76.544
G0 X113.892 Y76.953
G0 X114.519 Y76.828
G1 F2700 E71.6264
G1 F3000 X114.404 Y76.252 E71.65973
G1 X114.523 Y75.666 E71.69367
G1 X114.839 Y75.183 E71.72642
G1 X115.341 Y74.842 E71.76086
G1 X115.932 Y74.724 E71.79506
G1 X116.513 Y74.838 E71.82866
G1 X117 Y75.163 E71.86189
G1 X117.223 Y75.449 E71.88247
G1 X117.428 Y75.969 E71.91419
G1 X117.429 Y76.555 E71.94745
G1 X117.207 Y77.082 E71.9799
G1 X116.99 Y77.343 E71.99916
G1 X116.511 Y77.663 E72.03185
G1 X115.937 Y77.777 E72.06506
G1 X115.346 Y77.662 E72.09923
G1 X114.843 Y77.322 E72.13369
G1 X114.519 Y76.828 E72.16721
G0 F6000 X114.48 Y76.632
G1 F2700 E71.16721
G0 F6000 X113.853 Y76.757
G0 X114.715 Y78.823
G0 X113.716 Y156.98
G0 X113.375 Y157.689
G0 X113.027 Y157.545
;TYPE:SKIN
G1 F2700 E72.16721
G1 F3000 X112.828 Y158.38 E72.21593
G1 X112.796 Y158.915 E72.24634
G1 X112.922 Y159.597 E72.2857
G1 X113.102 Y160.136 E72.31795
G1 X113.637 Y160.894 E72.3706
G1 X113.97 Y161.188 E72.39581
G1 X114.557 Y161.569 E72.43552
G1 X114.923 Y161.722 E72.45804
G1 X115.761 Y161.893 E72.50657
G1 X116.159 Y161.876 E72.52918
G1 X116.943 Y161.717 E72.57458
G1 X117.323 Y161.562 E72.59787
G1 X118.091 Y161.056 E72.65006
G1 X118.641 Y160.361 E72.70036
G1 X118.964 Y159.558 E72.74948
G1 X119.037 Y159.204 E72.76999
G1 X119.051 Y158.369 E72.81738
G1 X118.975 Y157.986 E72.83954
G1 X118.647 Y157.149 E72.89056
G1 X118.111 Y156.455 E72.94032
G1 X117.299 Y155.93 E72.9952
G1 X116.943 Y155.781 E73.0171
G1 X116.139 Y155.617 E73.06366
G1 X115.726 Y155.622 E73.0871
G1 X114.92 Y155.777 E73.13368
G1 X114.607 Y155.907 E73.15292
G1 X114.005 Y156.288 E73.19335
G1 X113.696 Y156.542 E73.21605
G1 X113.49 Y156.793 E73.23447
G1 X113.027 Y157.545 E73.28459
G1 F2700 E72.28459
G0 F6000 X113.375 Y157.689
G0 X113.716 Y156.98
G0 X109.172 Y156.98
G0 X108.394 Y116.662
G0 X106.177 Y116.651
G0 X105.848 Y115.61
G0 X106.221 Y115.61
G1 F2700 E73.28459
G1 F3000 X106.221 Y78.14 E75.41102
G1 X107.584 Y78.139 E75.48837
G1 X107.995 Y78.087 E75.51188
G1 X108.506 Y77.886 E75.54304
G1 X108.826 Y77.651 E75.56557
G1 X109.166 Y77.245 E75.59562
G1 X109.344 Y76.865 E75.61944
G1 X109.445 Y76.39 E75.647
G1 X109.446 Y33.89 E78.05888
G1 X125.666 Y33.89 E78.97936
G1 X125.668 Y76.356 E81.38931
G1 X125.722 Y76.71 E81.40963
G1 X125.919 Y77.196 E81.43939
G1 X126.181 Y77.55 E81.46439
G1 X126.4 Y77.746 E81.48107
G1 X126.836 Y77.997 E81.50962
G1 X127.158 Y78.097 E81.52875
G1 X127.528 Y78.139 E81.54988
G1 X128.779 Y78.14 E81.62088
G1 X128.779 Y115.61 E83.7473
G1 X127.527 Y115.611 E83.81836
G1 X127.174 Y115.649 E83.8385
G1 X126.857 Y115.743 E83.85727
G1 X126.434 Y115.978 E83.88473
G1 X126.191 Y116.192 E83.9031
G1 X125.951 Y116.5 E83.92526
G1 X125.804 Y116.788 E83.94361
G1 X125.67 Y117.351 E83.97646
G1 X125.668 Y158.856 E86.33187
G1 X125.722 Y159.21 E86.35219
G1 X125.919 Y159.696 E86.38195
G1 X126.181 Y160.05 E86.40695
G1 X126.4 Y160.246 E86.42362
G1 X126.836 Y160.497 E86.45217
G1 X127.158 Y160.597 E86.47131
G1 X127.528 Y160.639 E86.49244
G1 X128.779 Y160.64 E86.56344
G1 X128.779 Y198.11 E88.68986
G1 X127.527 Y198.111 E88.76091
G1 X127.134 Y198.158 E88.78338
G1 X126.74 Y198.296 E88.80707
G1 X126.357 Y198.537 E88.83275
G1 X126.089 Y198.808 E88.85438
G1 X125.861 Y199.165 E88.87842
G1 X125.732 Y199.502 E88.89889
G1 X125.667 Y199.966 E88.92548
G1 X125.666 Y201.11 E88.9904
G1 X109.446 Y201.11 E89.91089
G1 X109.444 Y199.962 E89.97604
G1 X109.378 Y199.499 E90.00258
G1 X109.271 Y199.208 E90.02018
G1 X108.994 Y198.773 E90.04944
G1 X108.743 Y198.527 E90.06939
G1 X108.306 Y198.265 E90.0983
G1 X107.974 Y198.157 E90.11812
G1 X107.585 Y198.111 E90.14035
G1 X106.221 Y198.11 E90.21775
G1 X106.221 Y160.64 E92.34418
G1 X107.584 Y160.639 E92.42153
G1 X107.995 Y160.587 E92.44504
G1 X108.506 Y160.386 E92.4762
G1 X108.826 Y160.151 E92.49873
G1 X109.166 Y159.745 E92.52879
G1 X109.344 Y159.365 E92.5526
G1 X109.445 Y158.89 E92.58016
G1 X109.442 Y117.352 E94.93744
G1 X109.308 Y116.787 E94.9704
G1 X109.149 Y116.479 E94.99007
G1 X108.902 Y116.171 E95.01247
G1 X108.665 Y115.967 E95.03022
G1 X108.24 Y115.737 E95.05764
G1 X107.928 Y115.648 E95.07606
G1 X107.586 Y115.611 E95.09558
G1 X106.221 Y115.61 E95.17304
G1 F2700 E94.17304
G0 F6000 X105.848 Y115.61
G0 X105.948 Y77.867
G0 X113.099 Y76.544
G0 X113.418 Y77.435
G0 X113.102 Y77.636
G1 F2700 E95.17304
G1 F3000 X113.637 Y78.394 E95.22569
G1 X113.97 Y78.688 E95.2509
G1 X114.557 Y79.069 E95.29062
G1 X114.923 Y79.222 E95.31313
G1 X115.761 Y79.393 E95.36167
G1 X116.159 Y79.376 E95.38427
G1 X116.943 Y79.217 E95.42967
G1 X117.323 Y79.062 E95.45296
G1 X118.091 Y78.556 E95.50515
G1 X118.641 Y77.861 E95.55545
G1 X118.964 Y77.058 E95.60457
G1 X119.037 Y76.704 E95.62508
G1 X119.051 Y75.868 E95.67253
G1 X118.975 Y75.486 E95.69464
G1 X118.647 Y74.649 E95.74565
G1 X118.111 Y73.955 E95.79542
G1 X117.299 Y73.43 E95.85029
G1 X116.943 Y73.281 E95.87219
G1 X116.139 Y73.117 E95.91876
G1 X115.726 Y73.122 E95.9422
G1 X114.92 Y73.277 E95.98878
G1 X114.607 Y73.407 E96.00801
G1 X114.005 Y73.788 E96.04844
G1 X113.696 Y74.042 E96.07114
G1 X113.49 Y74.293 E96.08957
G1 X113.027 Y75.045 E96.13968
G1 X112.828 Y75.88 E96.1884
G1 X112.796 Y76.415 E96.21881
G1 X112.922 Y77.097 E96.25817
G1 X113.102 Y77.636 E96.29042
G1 F2700 E95.29042
G0 F6000 X113.418 Y77.435
G0 X113.92 Y75.642
G0 X114.765 Y73.654
G0 X114.765 Y33.617
G0 X125.278 Y33.517
G0 X125.278 Y34.163
G1 F2700 E96.29042
G1 F3000 X125.393 Y34.278 E96.29965
G0 F6000 X125.393 Y35.05
G1 F3000 X124.505 Y34.163 E96.37088
G0 F6000 X123.733 Y34.163
G1 F3000 X125.393 Y35.822 E96.50406
G0 F6000 X125.393 Y36.594
G1 F3000 X122.961 Y34.163 E96.69921
G0 F6000 X122.189 Y34.163
