;FLAVOR:Marlin
;TIME:27785
;Filament used: 48.7672m
;Layer height: 0.2
;MINX:6.847
;MINY:32.21
;MINZ:0.25
;MAXX:228.153
;MAXY:203.657
;MAXZ:20.05
;Generated with Cura_SteamEngine 5.3.1
M140 S60
M105
M190 S60
M104 S210
M105
M109 S210
M82 ;absolute extrusion mode
;ELEGOO NEPTUNE 3 Pro
M220 S100 ;Set the feed speed to 100%
M221 S100 ;Set the flow rate to 100%
G90
G28 ;home
;M420 S1 Z10;Uncomment to enable progressive compensation height of 10mm
G92 E0 ;Reset Extruder
G1 Z0.45 F300
G1 X1.5 Y20 F5000.0 ;Move to start position
G1 Y120.0 F600.0 E15 ;Draw the first line
G1 X0.5 F1000.0 ;Move to side a little
G1 Y20 F600 E30 ;Draw the second line
G92 E0 ;Reset Extruder
G92 E0
G92 E0
G1 F2700 E-1
;LAYER_COUNT:100
;LAYER:0
M107
M204 S500
G0 F6000 X10.243 Y35.671 Z0.25
;TYPE:SUPPORT
G1 F2700 E0
G1 F3000 X12.867 Y36.894 E0.15608
G1 F2700 E-0.84392
G0 F6000 X11.171 Y35.67
G1 F2700 E0.15608
G1 F3000 X9.947 Y38.295 E0.31223
G0 F6000 X9.245 Y38.295
G1 F3000 X8.297 Y37.853 E0.36862
G1 F2700 E-0.63138
G0 F6000 X6.847 Y40.081
G0 X6.847 Y194.919
G0 X10.227 Y196.703
G1 F2700 E0.36862
G1 F3000 X9.004 Y199.327 E0.5247
G1 F2700 E-0.4753
G0 F6000 X10.06 Y199.327
G1 F2700 E0.5247
G1 F3000 X8.297 Y198.505 E0.62957
G1 F2700 E-0.37043
G0 F6000 X11.059 Y196.703
G1 F2700 E0.62957
G1 F3000 X12.867 Y197.546 E0.73712
G1 X12.867 Y197.668
G1 X12.093 Y199.327 E0.83581
G1 F2700 E-0.16419
G0 F6000 X108.215 Y191.954
G1 F2700 E0.83581
G1 F3000 X108.273 Y191.829 E0.84324
G1 F2700 E-0.15676
G0 F6000 X111.305 Y191.954
G1 F2700 E0.84324
G1 F3000 X111.362 Y191.83 E0.8506
G1 F2700 E-0.1494
G0 F6000 X113.24 Y191.83
G1 F2700 E0.8506
G1 F3000 X113.505 Y191.954 E0.86637
G0 F6000 X114.394 Y191.954
G1 F3000 X114.452 Y191.829 E0.8738
G1 F2700 E-0.1262
G0 F6000 X117.483 Y191.954
G1 F2700 E0.8738
G1 F3000 X117.541 Y191.83 E0.88118
G1 F2700 E-0.11882
G0 F6000 X119.866 Y191.83
G1 F2700 E0.88118
G1 F3000 X120.13 Y191.953 E0.89688
G0 F6000 X120.573 Y191.954
G1 F3000 X120.631 Y191.829 E0.90431
G1 F2700 E-0.09569
G0 F6000 X123.662 Y191.954
G1 F2700 E0.90431
G1 F3000 X123.72 Y191.829 E0.91174
G1 F2700 E-0.08826
G0 F6000 X126.492 Y191.83
G1 F2700 E0.91174
G1 F3000 X126.755 Y191.953 E0.9274
G1 X126.752 Y191.954
G1 X126.81 Y191.83 E0.93478
G1 F2700 E-0.06522
G0 F6000 X129.841 Y191.954
G1 F2700 E0.93478
G1 F3000 X129.899 Y191.829 E0.94221
G1 F2700 E-0.05779
G0 F6000 X222.418 Y198.809
G1 F2700 E0.94221
G1 F3000 X223.4 Y196.702 E1.06753
G0 F6000 X223.071 Y196.703
G1 F3000 X226.702 Y198.396 E1.28352
G1 F2700 E0.28352
G0 F6000 X226.49 Y196.702
G1 F2700 E1.28352
G1 F3000 X225.266 Y199.328 E1.43972
G1 F2700 E0.43972
G0 F6000 X228.153 Y194.919
G0 X228.153 Y40.081
G0 X226.209 Y38.296
G1 F2700 E1.43972
G1 F3000 X226.701 Y37.241 E1.50248
G0 F6000 X226.701 Y37.744
G1 F3000 X222.417 Y35.746 E1.75732
G1 F2700 E0.75732
G0 F6000 X224.343 Y35.671
G1 F2700 E1.75732
G1 F3000 X223.119 Y38.296 E1.91347
G1 F2700 E0.91347
;MESH:box.stl
G0 F6000 X132.729 Y187.795
G0 X104.671 Y188.402
;TYPE:WALL-INNER
G1 F2700 E1.91347
G1 F3000 X105.047 Y188.149 E1.93919
G1 X105.541 Y188.029 E1.96804
G1 X132.682 Y188.029 E3.5083
G1 X133.148 Y188.137 E3.53544
G1 X133.463 Y188.325 E3.55626
G1 X133.748 Y188.636 E3.5802
G1 X133.884 Y188.897 E3.5969
G1 X133.974 Y189.316 E3.62122
G1 X133.976 Y194.48 E3.91428
G1 X133.848 Y194.972 E3.94313
G1 X133.64 Y195.291 E3.96474
G1 X133.304 Y195.57 E3.98953
G1 X132.774 Y195.758 E4.02144
G1 X105.423 Y195.758 E5.57361
G1 X104.917 Y195.57 E5.60425
G1 X104.582 Y195.291 E5.62899
G1 X104.374 Y194.972 E5.6506
G1 X104.246 Y194.48 E5.67945
G1 X104.248 Y189.316 E5.97251
G1 X104.304 Y188.997 E5.99089
G1 X104.416 Y188.732 E6.00721
G1 X104.671 Y188.402 E6.03088
G0 F6000 X105.074 Y188.773
G1 F3000 X105.34 Y188.619 E6.04832
G1 X105.577 Y188.574 E6.06201
G1 X132.713 Y188.58 E7.60198
G1 X132.978 Y188.66 E7.61769
G1 X133.237 Y188.863 E7.63637
G1 X133.364 Y189.068 E7.65005
G1 X133.429 Y189.347 E7.66631
G1 X133.427 Y194.471 E7.9571
G1 X133.3 Y194.837 E7.97908
G1 X133.137 Y195.021 E7.99303
G1 X132.9 Y195.16 E8.00863
G1 X132.709 Y195.212 E8.01986
G1 X105.51 Y195.212 E9.56341
G1 X105.322 Y195.16 E9.57448
G1 X105.084 Y195.021 E9.59012
G1 X104.922 Y194.837 E9.60403
G1 X104.795 Y194.471 E9.62602
G1 X104.796 Y189.303 E9.9193
G1 X104.87 Y189.042 E9.9347
G1 X105.074 Y188.773 E9.95385
G1 F2700 E8.95385
G0 F6000 X105.074 Y188.483
G0 X104.046 Y189.067
G0 X11.692 Y192.689
G0 X8.865 Y192.901
G1 F2700 E9.95385
G1 F3000 X15.484 Y192.901 E10.32948
G1 X15.903 Y193.038 E10.3545
G1 X16.266 Y193.295 E10.37974
G1 X16.494 Y193.594 E10.40108
G1 X16.61 Y193.862 E10.41765
G1 X16.666 Y194.149 E10.43425
G1 X16.67 Y201.635 E10.85908
G1 X218.616 Y201.635 E22.31954
G1 X218.621 Y194.144 E22.74465
G1 X218.71 Y193.765 E22.76674
G1 X218.836 Y193.521 E22.78233
G1 X219.047 Y193.269 E22.80098
G1 X219.222 Y193.131 E22.81363
G1 X219.508 Y192.985 E22.83185
G1 X219.981 Y192.901 E22.85911
G1 X226.135 Y192.901 E23.20835
G1 X226.135 Y42.099 E31.76638
G1 X219.981 Y42.099 E32.11562
G1 X219.508 Y42.015 E32.14289
G1 X219.222 Y41.87 E32.16108
G1 X218.899 Y41.567 E32.18622
G1 X218.772 Y41.37 E32.19952
G1 X218.656 Y41.066 E32.21798
G1 X218.621 Y40.856 E32.23007
G1 X218.616 Y33.365 E32.65518
G1 X16.67 Y33.365 E44.11564
G1 X16.666 Y40.851 E44.54047
G1 X16.583 Y41.216 E44.56171
G1 X16.494 Y41.406 E44.57362
G1 X16.266 Y41.705 E44.59496
G1 X16.077 Y41.861 E44.60886
G1 X15.829 Y41.995 E44.62486
G1 X15.401 Y42.099 E44.64986
G1 X8.865 Y42.099 E45.02078
G1 X8.865 Y192.901 E53.57881
G0 F6000 X8.319 Y193.447
G1 F3000 X15.383 Y193.45 E53.97969
G1 X15.703 Y193.549 E53.9987
G1 X15.965 Y193.779 E54.01848
G1 X16.088 Y194.023 E54.03399
G1 X16.122 Y194.196 E54.04399
G1 X16.124 Y201.766 E54.47359
G1 X15.986 Y202.181 E54.49841
G1 X219.3 Y202.181 E66.0365
G1 X219.162 Y201.766 E66.06132
G1 X219.162 Y194.158 E66.49308
G1 X219.256 Y193.884 E66.50952
G1 X219.367 Y193.723 E66.52061
G1 X219.561 Y193.562 E66.53492
G1 X219.896 Y193.451 E66.55495
G1 X226.681 Y193.447 E66.94
G1 X226.681 Y41.553 E75.56
G1 X219.896 Y41.549 E75.94505
G1 X219.697 Y41.503 E75.95664
G1 X219.494 Y41.394 E75.96972
G1 X219.313 Y41.209 E75.9844
G1 X219.201 Y40.987 E75.99851
G1 X219.162 Y40.734 E76.01304
G1 X219.162 Y33.234 E76.43867
G1 X219.3 Y32.819 E76.46349
G1 X15.986 Y32.819 E88.00158
G1 X16.124 Y33.234 E88.0264
G1 X16.122 Y40.804 E88.456
G1 X16.088 Y40.977 E88.466
G1 X15.965 Y41.221 E88.48151
G1 X15.703 Y41.451 E88.50129
G1 X15.383 Y41.55 E88.5203
G1 X8.319 Y41.553 E88.92119
G1 X8.319 Y193.447 E97.54119
G0 F6000 X7.773 Y193.993
;TYPE:WALL-OUTER
G1 F3000 X15.373 Y193.994 E97.97249
G1 X15.498 Y194.071 E97.98082
G1 X15.578 Y194.242 E97.99153
G1 X15.578 Y201.766 E98.41852
G1 X15.524 Y201.93 E98.42832
G1 F2804.8 X15.359 Y202.073 E98.44157
G1 F2646.2 X7.808 Y202.074 E98.92738
G1 F2654.8 X7.808 Y202.692 E98.96702
G1 F2646.2 X15.412 Y202.689 E99.45624
G1 F2804.8 X15.922 Y202.727 E99.48728
G1 F3000 X219.364 Y202.727 E111.03264
G1 F2819.3 X219.981 Y202.692 E111.06996
G1 F2654.8 X227.192 Y202.692 E111.5324
G1 X227.192 Y202.074 E111.57203
G1 X219.981 Y202.074 E112.03447
G1 F2819.3 X219.762 Y201.93 E112.05029
G1 F3000 X219.708 Y201.766 E112.06009
G1 X219.711 Y194.219 E112.48839
G1 X219.764 Y194.099 E112.49583
G1 X219.952 Y193.994 E112.50805
G1 X227.227 Y193.993 E112.92091
G1 X227.227 Y41.007 E121.60288
G1 X219.952 Y41.006 E122.01574
G1 X219.829 Y40.962 E122.02315
G1 X219.711 Y40.781 E122.03541
G1 X219.708 Y33.234 E122.46371
G1 X219.762 Y33.07 E122.4735
G1 F2804.8 X219.927 Y32.927 E122.48676
G1 F2646.2 X227.192 Y32.926 E122.95417
G1 F2654.8 X227.192 Y32.308 E122.9938
G1 F2646.2 X219.874 Y32.311 E123.46462
G1 F2804.8 X219.364 Y32.273 E123.49567
G1 F3000 X15.922 Y32.273 E135.04102
G1 F2819.3 X15.305 Y32.308 E135.07834
G1 F2654.8 X7.808 Y32.308 E135.55912
G1 X7.808 Y32.926 E135.59875
G1 X15.305 Y32.926 E136.07953
G1 F2819.3 X15.524 Y33.07 E136.09536
G1 F3000 X15.578 Y33.234 E136.10516
G1 X15.578 Y40.758 E136.53215
G1 X15.498 Y40.929 E136.54286
G1 X15.331 Y41.006 E136.5533
G1 X7.773 Y41.007 E136.98222
G1 X7.773 Y193.993 E145.66419
G0 F6000 X7.973 Y193.993
G1 F2700 E144.66419
G0 F6000 X8.38 Y193.386
G0 X11.692 Y192.689
G0 X104.046 Y189.067
G0 X104.773 Y188.555
G0 X105.529 Y188.483
G0 X105.529 Y189.12
G1 F2700 E145.66419
G1 F3000 X132.684 Y189.129 E147.20524
G1 X132.791 Y189.186 E147.21212
G1 X132.884 Y189.319 E147.22133
G1 X132.883 Y194.419 E147.51075
G1 X132.787 Y194.603 E147.52253
G1 X132.659 Y194.662 E147.53053
G1 X105.561 Y194.662 E149.06834
G1 X105.435 Y194.603 E149.07624
G1 X105.339 Y194.419 E149.08802
G1 X105.339 Y189.363 E149.37494
G1 X105.387 Y189.235 E149.3827
G1 X105.529 Y189.12 E149.39307
G0 F6000 X105.729 Y189.12
G1 F2700 E148.39307
G0 F6000 X105.729 Y188.483
G0 X104.773 Y188.555
G0 X104.046 Y189.067
G0 X11.692 Y192.689
G0 X9.089 Y192.677
G0 X9.39 Y192.376
;TYPE:SKIN
G1 F2700 E149.39307
G1 F3000 X9.39 Y42.624 E157.89151
G1 X15.547 Y42.623 E158.24092
G1 X16.139 Y42.435 E158.27617
G1 X16.62 Y42.093 E158.30967
G1 X16.953 Y41.664 E158.34049
G1 X17.114 Y41.291 E158.36354
G1 X17.189 Y40.898 E158.38625
G1 X17.195 Y33.89 E158.78395
G1 X218.091 Y33.89 E170.18482
G1 X218.091 Y40.863 E170.58054
G1 X218.159 Y41.238 E170.60217
G1 X218.353 Y41.698 E170.6305
G1 X218.689 Y42.115 E170.66089
G1 X218.929 Y42.306 E170.6783
G1 X219.34 Y42.513 E170.70441
G1 X219.833 Y42.623 E170.73308
G1 X225.61 Y42.624 E171.06092
G1 X225.61 Y192.376 E179.55937
G1 X219.829 Y192.377 E179.88744
G1 X219.46 Y192.447 E179.90875
G1 X218.999 Y192.651 E179.93736
G1 X218.559 Y193.019 E179.96991
G1 X218.338 Y193.33 E179.99157
G1 X218.153 Y193.781 E180.01923
G1 X218.091 Y194.136 E180.03968
G1 X218.091 Y201.11 E180.43546
G1 X17.195 Y201.11 E191.83633
G1 X17.189 Y194.099 E192.2342
G1 X17.107 Y193.691 E192.25782
G1 X16.947 Y193.326 E192.28043
G1 X16.746 Y193.039 E192.30032
G1 X16.395 Y192.721 E192.3272
G1 X16.121 Y192.561 E192.3452
G1 X15.547 Y192.377 E192.37941
G1 X9.39 Y192.376 E192.72882
G1 F2700 E191.72882
G0 F6000 X9.017 Y192.376
G0 X11.692 Y192.689
G0 X104.046 Y189.067
G0 X103.922 Y188.541
G1 F2700 E192.72882
G1 F3000 X103.759 Y189.01 E192.757
G1 X103.723 Y189.282 E192.77257
G1 X103.722 Y194.521 E193.06988
G1 X103.813 Y194.977 E193.09627
G1 X104.047 Y195.453 E193.12637
G1 X104.395 Y195.846 E193.15616
G1 X104.939 Y196.163 E193.19189
G1 X105.289 Y196.255 E193.21243
G1 X105.592 Y196.282 E193.22969
G1 X132.63 Y196.282 E194.7641
G1 X132.982 Y196.247 E194.78418
G1 X133.317 Y196.144 E194.80407
G1 X133.826 Y195.846 E194.83754
G1 X134.176 Y195.451 E194.86749
G1 X134.409 Y194.979 E194.89736
G1 X134.5 Y194.521 E194.92386
G1 X134.498 Y189.276 E195.22152
G1 X134.37 Y188.699 E195.25506
G1 X134.18 Y188.336 E195.27831
G1 X133.961 Y188.067 E195.29799
G1 X133.512 Y187.729 E195.32989
G1 X133.228 Y187.604 E195.3475
G1 X132.787 Y187.509 E195.3731
G1 X105.533 Y187.504 E196.91976
G1 X105.129 Y187.564 E196.94294
G1 X104.785 Y187.691 E196.96375
G1 X104.503 Y187.86 E196.98241
G1 X104.239 Y188.09 E197.00228
G1 X103.922 Y188.541 E197.03356
G1 F2700 E196.03356
G0 F6000 X104.261 Y188.7
G0 X104.046 Y201.383
G0 X17.833 Y201.483
G0 X17.833 Y200.836
G1 F2700 E197.03356
G1 F3000 X17.466 Y200.469 E197.06302
G0 F6000 X17.466 Y199.696
G1 F3000 X18.606 Y200.836 E197.15451
G0 F6000 X19.378 Y200.836
G1 F3000 X17.465 Y198.923 E197.30804
G0 F6000 X17.464 Y198.15
G1 F3000 X20.15 Y200.836 E197.52361
G0 F6000 X20.922 Y200.836
G1 F3000 X17.463 Y197.376 E197.80126
G0 F6000 X17.462 Y196.603
G1 F3000 X21.694 Y200.836 E198.14095
G0 F6000 X22.466 Y200.836
G1 F3000 X17.462 Y195.831 E198.54259
G0 F6000 X17.461 Y195.058
G1 F3000 X23.239 Y200.836 E199.00632
G0 F6000 X24.011 Y200.836
G1 F3000 X17.46 Y194.285 E199.53208
G0 F6000 X16.817 Y194.285
G0 X16.628 Y193.523
G0 X17.218 Y193.271
G1 F3000 X24.783 Y200.836 E200.13922
G0 F6000 X25.555 Y200.836
G1 F3000 X9.663 Y184.943 E201.4147
G0 F6000 X9.663 Y185.715
G1 F3000 X16.294 Y192.347 E201.94692
G0 F6000 X15.971 Y192.902
G0 X15.279 Y192.104
G1 F3000 X9.663 Y186.488 E202.39765
G0 F6000 X9.663 Y187.26
G1 F3000 X14.507 Y192.104 E202.78641
G0 F6000 X13.734 Y192.103
G1 F3000 X9.663 Y188.032 E203.11314
G0 F6000 X9.663 Y188.804
G1 F3000 X12.962 Y192.103 E203.3779
G0 F6000 X12.189 Y192.103
G1 F3000 X9.663 Y189.576 E203.58067
G0 F6000 X9.663 Y190.348
G1 F3000 X11.417 Y192.103 E203.72148
G0 F6000 X10.644 Y192.102
G1 F3000 X9.663 Y191.121 E203.80021
G0 F6000 X9.663 Y191.893
G1 F3000 X9.872 Y192.102 E203.81699
G1 F2700 E202.81699
G0 F6000 X9.872 Y192.749
G0 X9.089 Y192.677
G0 X9.017 Y184.171
G0 X9.663 Y184.171
G1 F2700 E203.81699
G1 F3000 X26.327 Y200.836 E205.15443
G0 F6000 X27.099 Y200.836
G1 F3000 X9.663 Y183.399 E206.55382
G0 F6000 X9.663 Y182.627
G1 F3000 X27.872 Y200.836 E208.01522
G0 F6000 X28.644 Y200.836
G1 F3000 X9.663 Y181.855 E209.53857
G0 F6000 X9.663 Y181.082
G1 F3000 X29.416 Y200.836 E211.12392
G0 F6000 X30.188 Y200.836
G1 F3000 X9.663 Y180.31 E212.77123
G0 F6000 X9.663 Y179.538
G1 F3000 X30.96 Y200.836 E214.4805
G0 F6000 X31.732 Y200.836
G1 F3000 X9.663 Y178.766 E216.25173
G0 F6000 X9.663 Y177.994
G1 F3000 X32.504 Y200.836 E218.08491
G0 F6000 X33.277 Y200.836
G1 F3000 X9.663 Y177.222 E219.9801
G0 F6000 X9.663 Y176.45
G1 F3000 X34.049 Y200.836 E221.93724
G0 F6000 X34.821 Y200.836
G1 F3000 X9.663 Y175.677 E223.95638
G0 F6000 X9.663 Y174.905
G1 F3000 X35.593 Y200.836 E226.03748
G0 F6000 X36.365 Y200.836
G1 F3000 X9.663 Y174.133 E228.18053
G0 F6000 X9.663 Y173.361
G1 F3000 X37.137 Y200.836 E230.38555
G0 F6000 X37.91 Y200.836
G1 F3000 X9.663 Y172.589 E232.65256
G0 F6000 X9.663 Y171.817
G1 F3000 X38.682 Y200.836 E234.98153
G0 F6000 X39.454 Y200.836
G1 F3000 X9.663 Y171.044 E237.3725
G0 F6000 X9.663 Y170.272
G1 F3000 X40.226 Y200.836 E239.82543
G0 F6000 X40.998 Y200.836
G1 F3000 X9.663 Y169.5 E242.34032
G0 F6000 X9.663 Y168.728
G1 F3000 X41.77 Y200.836 E244.91716
G0 F6000 X42.543 Y200.836
G1 F3000 X9.663 Y167.956 E247.556
G0 F6000 X9.663 Y167.184
G1 F3000 X43.315 Y200.836 E250.2568
G0 F6000 X44.087 Y200.836
G1 F3000 X9.663 Y166.411 E253.0196
G0 F6000 X9.663 Y165.639
G1 F3000 X44.859 Y200.836 E255.84436
G0 F6000 X45.631 Y200.836
G1 F3000 X9.663 Y164.867 E258.73108
G0 F6000 X9.663 Y164.095
G1 F3000 X46.403 Y200.836 E261.67975
G0 F6000 X47.176 Y200.836
G1 F3000 X9.663 Y163.323 E264.69042
G0 F6000 X9.663 Y162.551
G1 F3000 X47.948 Y200.836 E267.76305
G0 F6000 X48.72 Y200.836
G1 F3000 X9.663 Y161.778 E270.89768
G0 F6000 X9.663 Y161.006
G1 F3000 X49.492 Y200.836 E274.09427
G0 F6000 X50.264 Y200.836
G1 F3000 X9.663 Y160.234 E277.35281
G0 F6000 X9.663 Y159.462
G1 F3000 X51.036 Y200.836 E280.67332
G0 F6000 X51.809 Y200.836
G1 F3000 X9.663 Y158.69 E284.05582
G0 F6000 X9.663 Y157.918
G1 F3000 X52.581 Y200.836 E287.50028
G0 F6000 X53.353 Y200.836
G1 F3000 X9.663 Y157.145 E291.00674
G0 F6000 X9.663 Y156.373
G1 F3000 X54.125 Y200.836 E294.57515
G0 F6000 X54.897 Y200.836
G1 F3000 X9.663 Y155.601 E298.20553
G0 F6000 X9.663 Y154.829
G1 F3000 X55.669 Y200.836 E301.89786
G0 F6000 X56.441 Y200.836
G1 F3000 X9.663 Y154.057 E305.65215
G0 F6000 X9.663 Y153.285
G1 F3000 X57.214 Y200.836 E309.46844
G0 F6000 X57.986 Y200.836
G1 F3000 X9.663 Y152.513 E313.34669
G0 F6000 X9.663 Y151.74
G1 F3000 X58.758 Y200.836 E317.28694
G0 F6000 X59.53 Y200.836
G1 F3000 X9.663 Y150.968 E321.28914
G0 F6000 X9.663 Y150.196
G1 F3000 X60.302 Y200.836 E325.3533
G0 F6000 X61.074 Y200.836
G1 F3000 X9.663 Y149.424 E329.47942
G0 F6000 X9.663 Y148.652
G1 F3000 X61.847 Y200.836 E333.66754
G0 F6000 X62.619 Y200.836
G1 F3000 X9.663 Y147.88 E337.91762
G0 F6000 X9.663 Y147.107
G1 F3000 X63.391 Y200.836 E342.2297
G0 F6000 X64.163 Y200.836
G1 F3000 X9.663 Y146.335 E346.60373
