;FLAVOR:Marlin
;TIME:20235
;Filament used: 40.7625m
;Layer height: 0.2
;MINX:7.711
;MINY:35.21
;MINZ:0.25
;MAXX:227.29
;MAXY:199.79
;MAXZ:7.85
;Generated with Cura_SteamEngine 5.3.1
M140 S60
M105
M190 S60
M104 S210
M105
M109 S210
M82 ;absolute extrusion mode
;ELEGOO NEPTUNE 3 Pro
M220 S100 ;Set the feed speed to 100%
M221 S100 ;Set the flow rate to 100%
G90
G28 ;home
;M420 S1 Z10;Uncomment to enable progressive compensation height of 10mm
G92 E0 ;Reset Extruder
G1 Z0.45 F300
G1 X1.5 Y20 F5000.0 ;Move to start position
G1 Y120.0 F600.0 E15 ;Draw the first line
G1 X0.5 F1000.0 ;Move to side a little
G1 Y20 F600 E30 ;Draw the second line
G92 E0 ;Reset Extruder
G92 E0
G92 E0
G1 F2700 E-1
;LAYER_COUNT:39
;LAYER:0
M107
M204 S500
;MESH:acrylic.stl
G0 F6000 X10.878 Y35.319 Z0.25
;TYPE:WALL-OUTER
G1 F2700 E0
G1 F2575.5 X11.52 Y35.318 E0.04244
G1 F2700 E-0.95756
G0 F6000 X12.154 Y35.434
G0 X96.432 Y36.618
G0 X97.723 Y74.561
G0 X96.432 Y78.208
;TYPE:WALL-INNER
G1 F2700 E0.04244
G1 F3000 X96.375 Y77.499 E0.0828
G1 X96.431 Y76.897 E0.11712
G1 X96.611 Y76.313 E0.1518
G1 X96.939 Y75.671 E0.19271
G1 X97.358 Y75.168 E0.22986
G1 X97.858 Y74.751 E0.26681
G1 X98.43 Y74.449 E0.30352
G1 X99.049 Y74.248 E0.34045
G1 X99.712 Y74.178 E0.37829
G1 X100.391 Y74.239 E0.41697
G1 X101.018 Y74.431 E0.45419
G1 X101.612 Y74.742 E0.49224
G1 X102.149 Y75.198 E0.53222
G1 X102.549 Y75.681 E0.56781
G1 X102.862 Y76.278 E0.60606
G1 X103.036 Y76.859 E0.64048
G1 X103.113 Y77.549 E0.67988
G1 X103.045 Y78.212 E0.7177
G1 X102.852 Y78.841 E0.75504
G1 X102.524 Y79.447 E0.79415
G1 X102.12 Y79.929 E0.82984
G1 X101.62 Y80.35 E0.86693
G1 X100.966 Y80.681 E0.90853
G1 X100.392 Y80.857 E0.9426
G1 X99.816 Y80.913 E0.97544
G1 X99.101 Y80.862 E1.01612
G1 X98.458 Y80.66 E1.05437
G1 X97.959 Y80.401 E1.08628
G1 X97.408 Y79.971 E1.12594
G1 X96.937 Y79.426 E1.16682
G1 X96.633 Y78.847 E1.20393
G1 X96.432 Y78.208 E1.24195
G0 F6000 X96.971 Y78.101
G1 F3000 X96.921 Y77.581 E1.27159
G1 X96.965 Y77.049 E1.30189
G1 X97.124 Y76.5 E1.33432
G1 X97.388 Y75.993 E1.36676
G1 X97.747 Y75.556 E1.39886
G1 X98.129 Y75.236 E1.42714
G1 X98.62 Y74.962 E1.45905
G1 X99.21 Y74.779 E1.4941
G1 X99.783 Y74.729 E1.52674
G1 X100.305 Y74.785 E1.55654
G1 X100.779 Y74.928 E1.58463
G1 X101.302 Y75.2 E1.61809
G1 X101.693 Y75.516 E1.64662
G1 X102.095 Y75.995 E1.68211
G1 X102.342 Y76.459 E1.71194
G1 X102.499 Y76.961 E1.74179
G1 X102.561 Y77.503 E1.77274
G1 X102.51 Y78.103 E1.80692
G1 X102.324 Y78.677 E1.84116
G1 X102.067 Y79.14 E1.87121
G1 X101.708 Y79.567 E1.90287
G1 X101.27 Y79.917 E1.93469
G1 X100.816 Y80.154 E1.96375
G1 X100.282 Y80.317 E1.99544
G1 X99.736 Y80.372 E2.02658
G1 X99.187 Y80.317 E2.05789
G1 X98.664 Y80.154 E2.08898
G1 X98.178 Y79.899 E2.12013
G1 X97.749 Y79.546 E2.15165
G1 X97.421 Y79.15 E2.18083
G1 X97.149 Y78.658 E2.21274
G1 X96.971 Y78.101 E2.24592
G1 F2700 E1.24592
G0 F6000 X96.886 Y78.125
G0 X97.369 Y79.134
G0 X99.777 Y81.146
G0 X115.241 Y104.607
G0 X115.272 Y106.618
G1 F2700 E2.24592
G1 F3000 X115.209 Y105.95 E2.284
G1 X115.277 Y105.301 E2.32103
G1 X115.462 Y104.686 E2.35748
G1 X115.788 Y104.071 E2.39698
G1 X116.249 Y103.539 E2.43693
G1 X116.71 Y103.155 E2.47098
G1 X117.292 Y102.854 E2.50816
G1 X117.893 Y102.662 E2.54397
G1 X118.559 Y102.591 E2.58198
G1 X119.226 Y102.651 E2.61998
G1 X119.882 Y102.853 E2.65894
G1 X120.458 Y103.163 E2.69606
G1 X120.974 Y103.596 E2.73429
G1 X121.378 Y104.08 E2.77006
G1 X121.648 Y104.581 E2.80236
G1 X121.891 Y105.298 E2.84532
G1 X121.947 Y105.999 E2.88523
G1 X121.893 Y106.601 E2.91953
G1 X121.692 Y107.266 E2.95896
G1 X121.382 Y107.835 E2.99573
G1 X120.949 Y108.362 E3.03444
G1 X120.42 Y108.782 E3.07277
G1 X119.836 Y109.091 E3.11027
G1 X119.237 Y109.264 E3.14565
G1 X118.646 Y109.328 E3.17938
G1 X117.95 Y109.276 E3.21899
G1 X117.345 Y109.093 E3.25486
G1 X116.721 Y108.775 E3.29461
G1 X116.21 Y108.356 E3.33211
G1 X115.833 Y107.903 E3.36555
G1 X115.506 Y107.329 E3.40304
G1 X115.272 Y106.618 E3.44552
G0 F6000 X115.82 Y106.533
G1 F3000 X115.761 Y105.991 E3.47646
G1 X115.812 Y105.409 E3.50962
G1 X115.985 Y104.863 E3.54212
G1 X116.26 Y104.363 E3.57451
G1 X116.586 Y103.968 E3.60357
G1 X117.017 Y103.616 E3.63515
G1 X117.464 Y103.374 E3.664
G1 X118.036 Y103.189 E3.69811
G1 X118.631 Y103.144 E3.73198
G1 X119.099 Y103.19 E3.75866
G1 X119.667 Y103.356 E3.79225
G1 X120.164 Y103.63 E3.82445
G1 X120.592 Y103.987 E3.85608
G1 X120.914 Y104.379 E3.88487
G1 X121.165 Y104.836 E3.91446
G1 X121.335 Y105.356 E3.94551
G1 X121.401 Y105.933 E3.97847
G1 X121.353 Y106.506 E4.0111
G1 X121.174 Y107.072 E4.04479
G1 X120.917 Y107.542 E4.07519
G1 X120.594 Y107.936 E4.1041
G1 X120.143 Y108.316 E4.13757
G1 X119.629 Y108.58 E4.17036
G1 X119.167 Y108.72 E4.19775
G1 X118.62 Y108.783 E4.229
G1 X118.072 Y108.735 E4.26022
G1 X117.532 Y108.58 E4.2921
G1 X117.06 Y108.336 E4.32226
G1 X116.589 Y107.957 E4.35656
G1 X116.217 Y107.5 E4.39001
G1 X115.997 Y107.089 E4.41646
G1 X115.82 Y106.533 E4.44957
G1 F2700 E3.44957
G0 F6000 X115.732 Y106.558
G0 X116.208 Y107.548
G0 X116.996 Y108.336
G0 X118.025 Y108.761
G0 X119.031 Y108.772
G0 X121.589 Y107.948
G0 X140.239 Y118.97
G0 X140.201 Y120.341
G1 F2700 E4.44957
G1 F3000 X140.262 Y119.695 E4.4864
G1 X140.456 Y119.058 E4.52419
G1 X140.76 Y118.479 E4.5613
G1 X141.202 Y117.943 E4.60073
G1 X141.713 Y117.533 E4.63791
G1 X142.279 Y117.229 E4.67437
G1 X142.819 Y117.06 E4.70648
G1 X143.523 Y116.974 E4.74673
G1 X144.224 Y117.028 E4.78663
G1 X144.833 Y117.219 E4.82285
G1 X145.419 Y117.519 E4.86021
G1 X145.955 Y117.957 E4.89949
G1 X146.386 Y118.48 E4.93795
G1 X146.685 Y119.063 E4.97513
G1 X146.883 Y119.691 E5.0125
G1 X146.939 Y120.353 E5.0502
G1 X146.875 Y121.021 E5.08829
G1 X146.677 Y121.644 E5.12538
G1 X146.37 Y122.217 E5.16227
G1 X145.949 Y122.731 E5.19998
G1 X145.422 Y123.152 E5.23826
G1 X144.905 Y123.434 E5.27168
G1 X144.229 Y123.648 E5.31192
G1 X143.565 Y123.712 E5.34978
G1 X142.914 Y123.641 E5.38694
G1 X142.318 Y123.468 E5.42216
G1 X141.675 Y123.129 E5.46341
G1 X141.161 Y122.688 E5.50184
G1 X140.804 Y122.255 E5.53369
G1 X140.454 Y121.62 E5.57484
G1 X140.262 Y120.96 E5.61385
G1 X140.201 Y120.341 E5.64914
G0 F6000 X140.798 Y119.803
G1 F3000 X140.979 Y119.233 E5.68308
G1 X141.216 Y118.79 E5.7116
G1 X141.559 Y118.366 E5.74255
G1 X141.971 Y118.019 E5.77311
G1 X142.518 Y117.725 E5.80836
G1 X143.058 Y117.566 E5.8403
G1 X143.528 Y117.52 E5.8671
G1 X144.141 Y117.577 E5.90204
G1 X144.663 Y117.739 E5.93306
G1 X145.102 Y117.972 E5.96126
G1 X145.552 Y118.333 E5.994
G1 X145.904 Y118.755 E6.02519
G1 X146.154 Y119.212 E6.05475
G1 X146.343 Y119.798 E6.08969
G1 X146.393 Y120.346 E6.12092
G1 X146.343 Y120.866 E6.15057
G1 X146.182 Y121.402 E6.18233
G1 X145.93 Y121.89 E6.2135
G1 X145.601 Y122.296 E6.24315
G1 X145.176 Y122.658 E6.27483
G1 X144.656 Y122.943 E6.30849
G1 X144.159 Y123.099 E6.33805
G1 X143.61 Y123.16 E6.36939
G1 X143.104 Y123.119 E6.3982
G1 X142.488 Y122.943 E6.43456
G1 X142.056 Y122.717 E6.46223
G1 X141.595 Y122.35 E6.49567
G1 X141.24 Y121.926 E6.52705
G1 X140.961 Y121.413 E6.56019
G1 X140.8 Y120.866 E6.59255
G1 X140.752 Y120.379 E6.62032
G1 X140.798 Y119.803 E6.65311
G1 F2700 E5.65311
G0 F6000 X140.712 Y119.795
G0 X140.773 Y120.896
G0 X141.199 Y121.925
G0 X141.986 Y122.713
G0 X143.015 Y123.139
G0 X144.128 Y123.139
G0 X146.91 Y121.698
G0 X167.431 Y127.301
G0 X167.589 Y128.018
G1 F2700 E6.65311
G1 F3000 X167.657 Y127.382 E6.68941
G1 X167.855 Y126.715 E6.7289
G1 X168.143 Y126.179 E6.76343
G1 X168.575 Y125.636 E6.80281
G1 X169.1 Y125.21 E6.84117
G1 X169.686 Y124.899 E6.87882
G1 X170.338 Y124.71 E6.91735
G1 X170.973 Y124.646 E6.95357
G1 X171.623 Y124.717 E6.99067
G1 X172.215 Y124.895 E7.02576
G1 X172.822 Y125.208 E7.06451
G1 X173.33 Y125.621 E7.10167
G1 X173.778 Y126.161 E7.14149
G1 X174.07 Y126.728 E7.17768
G1 X174.269 Y127.347 E7.21458
G1 X174.329 Y128.016 E7.2527
G1 X174.27 Y128.684 E7.29075
G1 X174.072 Y129.319 E7.3285
G1 X173.793 Y129.838 E7.36194
G1 X173.355 Y130.395 E7.40215
G1 X172.832 Y130.822 E7.44047
G1 X172.259 Y131.128 E7.47733
G1 X171.621 Y131.325 E7.51523
G1 X170.961 Y131.391 E7.55287
G1 X170.301 Y131.325 E7.59051
G1 X169.727 Y131.147 E7.62461
G1 X169.109 Y130.838 E7.66383
G1 X168.581 Y130.403 E7.70265
G1 X168.164 Y129.9 E7.73973
G1 X167.851 Y129.32 E7.77713
G1 X167.656 Y128.676 E7.81532
G1 X167.589 Y128.018 E7.85285
G0 F6000 X168.194 Y127.482
G1 F3000 X168.352 Y126.954 E7.88413
G1 X168.604 Y126.472 E7.91499
G1 X168.935 Y126.059 E7.94503
G1 X169.354 Y125.703 E7.97623
G1 X169.871 Y125.419 E8.00971
G1 X170.382 Y125.258 E8.04011
G1 X170.946 Y125.195 E8.07232
G1 X171.518 Y125.249 E8.10492
G1 X172.077 Y125.429 E8.13825
G1 X172.501 Y125.657 E8.16557
G1 X172.916 Y125.988 E8.1957
G1 X173.316 Y126.456 E8.23063
G1 X173.58 Y126.973 E8.26358
G1 X173.737 Y127.511 E8.29538
G1 X173.782 Y128.053 E8.32625
G1 X173.736 Y128.53 E8.35344
G1 X173.578 Y129.072 E8.38548
G1 X173.327 Y129.553 E8.41627
G1 X172.972 Y129.995 E8.44844
G1 X172.526 Y130.371 E8.48155
G1 X172.011 Y130.634 E8.51437
G1 X171.551 Y130.776 E8.54169
G1 X171.002 Y130.839 E8.57305
G1 X170.416 Y130.792 E8.60641
G1 X169.843 Y130.605 E8.64061
G1 X169.409 Y130.373 E8.66854
G1 X168.968 Y130.015 E8.70078
G1 X168.599 Y129.557 E8.73416
G1 X168.348 Y129.076 E8.76494
G1 X168.189 Y128.526 E8.79744
G1 X168.143 Y128.071 E8.82339
G1 X168.194 Y127.482 E8.85694
G1 F2700 E7.85694
G0 F6000 X168.103 Y127.473
G0 X168.586 Y126.439
G0 X169.377 Y125.646
G0 X170.406 Y125.22
G0 X171.517 Y125.219
G0 X172.541 Y125.642
G0 X174.568 Y127.994
G0 X196.381 Y128.127
G0 X196.623 Y128.038
G1 F2700 E8.85694
G1 F3000 X196.702 Y127.383 E8.89438
G1 X196.876 Y126.816 E8.92804
G1 X197.189 Y126.229 E8.96579
G1 X197.621 Y125.714 E9.00394
G1 X198.044 Y125.363 E9.03513
G1 X198.639 Y125.026 E9.07394
G1 X199.32 Y124.801 E9.11464
G1 X200.033 Y124.743 E9.15524
G1 X200.659 Y124.8 E9.19091
G1 X201.35 Y125.032 E9.23227
G1 X201.851 Y125.3 E9.26452
G1 X202.369 Y125.725 E9.30254
G1 X202.788 Y126.24 E9.34022
G1 X203.097 Y126.813 E9.37716
G1 X203.293 Y127.45 E9.41499
G1 X203.354 Y128.056 E9.44955
G1 X203.301 Y128.746 E9.48882
G1 X203.079 Y129.437 E9.53001
G1 X202.75 Y130.031 E9.56855
G1 X202.415 Y130.439 E9.59851
G1 X201.872 Y130.907 E9.63919
G1 X201.341 Y131.188 E9.67328
G1 X200.656 Y131.417 E9.71427
G1 X199.915 Y131.474 E9.75645
G1 X199.33 Y131.414 E9.78982
G1 X198.748 Y131.237 E9.82434
G1 X198.122 Y130.92 E9.86416
G1 X197.558 Y130.437 E9.9063
G1 X197.172 Y129.965 E9.9409
G1 X196.857 Y129.341 E9.98057
G1 X196.673 Y128.693 E10.0188
G1 X196.623 Y128.038 E10.05608
G0 F6000 X197.215 Y127.596
G1 F3000 X197.372 Y127.058 E10.08789
G1 X197.626 Y126.568 E10.11921
G1 X197.964 Y126.145 E10.14993
G1 X198.391 Y125.785 E10.18163
G1 X198.872 Y125.52 E10.21279
G1 X199.431 Y125.339 E10.24614
G1 X199.945 Y125.289 E10.27545
G1 X200.53 Y125.34 E10.30877
G1 X201.054 Y125.498 E10.33983
G1 X201.545 Y125.758 E10.37136
G1 X201.98 Y126.114 E10.40326
G1 X202.339 Y126.545 E10.43509
G1 X202.58 Y127.002 E10.46441
G1 X202.755 Y127.545 E10.49679
G1 X202.809 Y128.103 E10.5286
G1 X202.749 Y128.685 E10.56181
G1 X202.581 Y129.212 E10.5932
G1 X202.335 Y129.672 E10.6228
G1 X201.985 Y130.103 E10.65431
G1 X201.516 Y130.478 E10.68839
G1 X201.073 Y130.71 E10.71677
G1 X200.535 Y130.876 E10.74872
G1 X200.023 Y130.929 E10.77793
G1 X199.437 Y130.877 E10.81132
G1 X198.9 Y130.71 E10.84323
G1 X198.451 Y130.472 E10.87207
G1 X197.992 Y130.107 E10.90535
G1 X197.624 Y129.645 E10.93887
G1 X197.37 Y129.155 E10.97019
G1 X197.228 Y128.692 E10.99767
G1 X197.168 Y128.143 E11.02902
G1 X197.215 Y127.596 E11.06017
G1 F2700 E10.06017
G0 F6000 X197.126 Y127.587
G0 X197.182 Y128.557
G0 X197.998 Y131.117
G0 X197.935 Y153.866
G0 X196.631 Y156.201
G1 F2700 E11.06017
G1 F3000 X196.833 Y155.565 E11.09804
G1 X197.117 Y155.018 E11.13302
G1 X197.556 Y154.479 E11.17247
G1 X198.103 Y154.036 E11.21241
G1 X198.644 Y153.756 E11.24699
G1 X199.268 Y153.556 E11.28417
G1 X199.931 Y153.492 E11.32197
G1 X200.593 Y153.555 E11.35971
G1 X201.242 Y153.754 E11.39823
G1 X201.804 Y154.062 E11.4346
G1 X202.316 Y154.475 E11.47193
G1 X202.745 Y154.996 E11.51023
G1 X203.063 Y155.613 E11.54963
G1 X203.251 Y156.231 E11.58628
G1 X203.304 Y156.9 E11.62437
G1 X203.249 Y157.472 E11.65698
G1 X203.06 Y158.136 E11.69616
G1 X202.715 Y158.763 E11.73677
G1 X202.321 Y159.24 E11.77188
G1 X201.861 Y159.625 E11.80592
G1 X201.25 Y159.97 E11.84574
G1 X200.586 Y160.174 E11.88516
G1 X199.911 Y160.229 E11.9236
G1 X199.304 Y160.174 E11.95819
G1 X198.72 Y159.999 E11.99278
G1 X198.061 Y159.668 E12.03463
G1 X197.536 Y159.218 E12.07388
G1 X197.134 Y158.735 E12.10954
G1 X196.831 Y158.157 E12.14657
G1 X196.649 Y157.58 E12.18091
G1 X196.564 Y156.883 E12.22076
G1 X196.631 Y156.201 E12.25965
G0 F6000 X197.084 Y157.444
G0 X197.167 Y157.419
G1 F3000 X197.118 Y156.822 E12.29364
G1 X197.18 Y156.273 E12.32499
G1 X197.336 Y155.777 E12.3545
G1 X197.597 Y155.29 E12.38586
G1 X197.932 Y154.884 E12.41573
G1 X198.368 Y154.516 E12.44811
G1 X198.855 Y154.26 E12.47933
G1 X199.431 Y154.088 E12.51344
G1 X199.972 Y154.043 E12.54425
G1 X200.449 Y154.089 E12.57145
G1 X200.99 Y154.247 E12.60343
G1 X201.502 Y154.511 E12.63612
G1 X201.955 Y154.894 E12.66979
G1 X202.306 Y155.333 E12.70168
G1 X202.552 Y155.806 E12.73194
G1 X202.71 Y156.342 E12.76365
G1 X202.759 Y156.857 E12.79301
G1 X202.699 Y157.436 E12.82605
G1 X202.532 Y157.968 E12.85769
G1 X202.271 Y158.446 E12.8886
G1 X201.963 Y158.824 E12.91627
G1 X201.536 Y159.186 E12.94804
G1 X201.031 Y159.462 E12.9807
G1 X200.477 Y159.637 E13.01367
G1 X199.891 Y159.682 E13.04702
G1 X199.374 Y159.627 E13.07653
G1 X198.9 Y159.483 E13.10464
G1 X198.418 Y159.237 E13.13535
G1 X197.967 Y158.877 E13.1681
G1 X197.636 Y158.488 E13.19708
G1 X197.35 Y157.98 E13.23017
G1 X197.167 Y157.419 E13.26365
G1 F2700 E12.26365
G0 F6000 X197.084 Y157.444
G0 X196.334 Y156.858
G0 X174.56 Y156.874
G0 X172.98 Y158.82
G0 X172.054 Y159.439
G0 X170.962 Y159.657
G0 X169.87 Y159.439
G0 X168.945 Y158.82
G0 X167.589 Y156.799
G1 F2700 E13.26365
G1 F3000 X167.673 Y156.093 E13.304
G1 X167.843 Y155.542 E13.33673
G1 X168.137 Y154.963 E13.37358
G1 X168.562 Y154.445 E13.4116
G1 X169.077 Y154.006 E13.45001
G1 X169.665 Y153.692 E13.48784
G1 X170.302 Y153.497 E13.52564
G1 X170.955 Y153.431 E13.56289
G1 X171.62 Y153.497 E13.60081
G1 X172.258 Y153.693 E13.63869
G1 X172.829 Y153.998 E13.67543
G1 X173.339 Y154.412 E13.7127
G1 X173.77 Y154.935 E13.75116
G1 X174.093 Y155.571 E13.79165
G1 X174.277 Y156.215 E13.82966
G1 X174.333 Y156.802 E13.86312
G1 X174.264 Y157.462 E13.90078
G1 X174.073 Y158.1 E13.93857
G1 X173.795 Y158.619 E13.97198
G1 X173.395 Y159.127 E14.00868
G1 X172.827 Y159.617 E14.05125
G1 X172.18 Y159.939 E14.09226
G1 X171.594 Y160.115 E14.12699
G1 X170.935 Y160.169 E14.16451
G1 X170.328 Y160.114 E14.1991
G1 X169.666 Y159.916 E14.23831
G1 X169.052 Y159.574 E14.2782
G1 X168.593 Y159.197 E14.3119
G1 X168.169 Y158.688 E14.3495
G1 X167.859 Y158.116 E14.38642
G1 X167.655 Y157.45 E14.42595
G1 X167.589 Y156.799 E14.46308
G0 F6000 X168.194 Y156.267
G1 F3000 X168.375 Y155.685 E14.49767
G1 X168.616 Y155.231 E14.52684
G1 X168.998 Y154.782 E14.5603
G1 X169.409 Y154.449 E14.59032
G1 X169.843 Y154.215 E14.6183
G1 X170.337 Y154.056 E14.64775
G1 X170.916 Y153.983 E14.68087
G1 X171.497 Y154.029 E14.71394
G1 X172.01 Y154.187 E14.7444
G1 X172.534 Y154.458 E14.77788
G1 X172.957 Y154.81 E14.80911
G1 X173.335 Y155.281 E14.84338
G1 X173.55 Y155.687 E14.86946
G1 X173.734 Y156.255 E14.90334
G1 X173.782 Y156.837 E14.93648
G1 X173.736 Y157.313 E14.96362
G1 X173.578 Y157.855 E14.99566
G1 X173.285 Y158.4 E15.03077
G1 X172.989 Y158.762 E15.05731
G1 X172.56 Y159.126 E15.08924
